X:3822
L:1/4
M:4/4
K:D
 A A | A A d c | B2 A2 | G F B A | F G E2 | F F F F | B A A ^G | A B c d | F ^G A2 | d c B A | 
 d c B A | B A G E | D C D2 |]

